; generated by Slic3r 1.2.9 on 2017-07-11 at 15:55:04

; external perimeters extrusion width = 0.40mm
; perimeters extrusion width = 0.48mm
; infill extrusion width = 0.48mm
; solid infill extrusion width = 0.48mm
; top infill extrusion width = 0.48mm

; external perimeters extrusion width = 0.40mm
; perimeters extrusion width = 0.48mm
; infill extrusion width = 0.48mm
; solid infill extrusion width = 0.48mm
; top infill extrusion width = 0.48mm

M107
M190 S45 ; set bed temperature
M104 S190 T0 ; set temperature
G28 ; home all axes
G1 Z5 F5000 ; lift nozzle

M109 S190 T0 ; wait for temperature to be reached
G21 ; set units to millimeters
G90 ; use absolute coordinates
M82 ; use absolute distances for extrusion
G92 E0
T0
G92 E0
; Layer 1
G1 Z0.400 F7800.000
G1 E-6.00000 F3000.00000
G92 E0
G1 X87.327 Y88.220 F7800.000
G1 E6.00000 F3000.00000
G1 X89.083 Y86.720 E6.27422 F1200.000
G1 X91.243 Y85.905 E6.54845
G1 X92.500 Y85.786 E6.69842
G1 X107.500 Y85.786 E8.47989
G1 X109.775 Y86.183 E8.75412
G1 X111.780 Y87.327 E9.02834 F1200.000
G1 X113.280 Y89.083 E9.30257
G1 X114.095 Y91.243 E9.57679
G1 X114.214 Y92.500 E9.72676
G1 X114.214 Y107.500 E11.50824
G1 X113.817 Y109.775 E11.78246
G1 X112.673 Y111.780 E12.05669
G1 X110.917 Y113.280 E12.33091
G1 X108.757 Y114.095 E12.60514
G1 X107.500 Y114.214 E12.75510
G1 X92.500 Y114.214 E14.53658
G1 X90.225 Y113.817 E14.81081
G1 X88.220 Y112.673 E15.08503
G1 X86.720 Y110.917 E15.35926
G1 X85.905 Y108.757 E15.63348
G1 X85.786 Y107.500 E15.78345
G1 X85.786 Y92.500 E17.56492
G1 X86.183 Y90.225 E17.83915
G1 X87.297 Y88.272 E18.10625
G1 E12.10625 F3000.00000
G92 E0
G1 X105.672 Y105.672 F7800.000
G1 E6.00000 F3000.00000
G1 X94.328 Y105.672 E7.34720 F1200.000
G1 X94.328 Y94.328 E8.69439
G1 X105.672 Y94.328 E10.04159
G1 X105.672 Y105.612 E11.38166
G1 X106.386 Y106.386 F7800.000
G1 X93.614 Y106.386 E12.89849 F1200.000
G1 X93.614 Y93.614 E14.41532
G1 X106.386 Y93.614 E15.93215
G1 X106.386 Y106.326 E17.44186
G1 X107.100 Y107.100 F7800.000
G1 X92.900 Y107.100 E19.12833 F1200.000
G1 X92.900 Y92.900 E20.81479
G1 X107.100 Y92.900 E22.50126
G1 X107.100 Y107.040 E24.18060
G1 X106.754 Y106.900 F7800.000
G1 X105.236 Y95.107 F7800.000
G1 X104.893 Y94.764 E24.23837 F1200.000
G1 X103.880 Y94.764 E24.35903
G1 X105.236 Y96.120 E24.58744
G1 X105.236 Y97.133 E24.70809
G1 X102.867 Y94.764 E25.10713
G1 X101.854 Y94.764 E25.22778
G1 X105.236 Y98.146 E25.79745
G1 X105.236 Y99.159 E25.91810
G1 X100.841 Y94.764 E26.65840
G1 X99.829 Y94.764 E26.77906
G1 X105.236 Y100.171 E27.68999
G1 X105.236 Y101.184 E27.81064
G1 X98.816 Y94.764 E28.89220
G1 X97.803 Y94.764 E29.01285
G1 X105.236 Y102.197 E30.26504
G1 X105.236 Y103.210 E30.38570
G1 X96.790 Y94.764 E31.80852
G1 X95.777 Y94.764 E31.92917
G1 X105.236 Y104.223 E33.52262
G1 X105.216 Y105.216 E33.64091
G1 X94.784 Y94.784 E35.39826
G1 X94.764 Y95.777 E35.51655
G1 X104.223 Y105.236 E37.11000
G1 X103.210 Y105.236 E37.23066
G1 X94.764 Y96.790 E38.65347
G1 X94.764 Y97.803 E38.77413
G1 X102.197 Y105.236 E40.02632
G1 X101.184 Y105.236 E40.14697
G1 X94.764 Y98.816 E41.22853
G1 X94.764 Y99.829 E41.34918
G1 X100.171 Y105.236 E42.26011
G1 X99.159 Y105.236 E42.38076
G1 X94.764 Y100.841 E43.12106
G1 X94.764 Y101.854 E43.24171
G1 X98.146 Y105.236 E43.81138
G1 X97.133 Y105.236 E43.93204
G1 X94.764 Y102.867 E44.33107
G1 X94.764 Y103.880 E44.45173
G1 X96.120 Y105.236 E44.68013
G1 X95.107 Y105.236 E44.80079
G1 X94.764 Y104.893 E44.85856
M104 S185 T0 ; set temperature
M140 S40 ; wait for bed temperature to be reached
; Layer 2
G1 Z0.700 F7800.000
G1 X106.504 Y106.504 F7800.000
G1 X93.496 Y106.504 E45.53815 F2400.000
G1 X93.496 Y93.496 E46.21774
G1 X106.504 Y93.496 E46.89733
G1 X106.504 Y106.444 E47.57378
G1 X106.923 Y106.923 F7800.000
G1 X93.077 Y106.923 E48.29714 F2400.000
G1 X93.077 Y93.077 E49.02049
G1 X106.923 Y93.077 E49.74385
G1 X106.923 Y106.863 E50.46407
G1 X107.300 Y107.300 F7800.000
G1 X92.700 Y107.300 E51.07523 F1200.000
G1 X92.700 Y92.700 E51.68639
G1 X107.300 Y92.700 E52.29755
G1 X107.300 Y107.240 E52.90620
G1 X106.954 Y107.100 F7800.000
G1 X106.039 Y106.257 F7800.000
G1 X106.257 Y106.039 E52.92249 F1200.000
G1 X106.257 Y105.439 E52.95422
G1 X105.439 Y106.257 E53.01538
G1 X104.839 Y106.257 E53.04710
G1 X106.257 Y104.839 E53.15313
G1 X106.257 Y104.240 E53.18486
G1 X104.240 Y106.257 E53.33575
G1 X103.640 Y106.257 E53.36748
G1 X106.257 Y103.640 E53.56325
G1 X106.257 Y103.040 E53.59497
G1 X103.040 Y106.257 E53.83561
G1 X102.440 Y106.257 E53.86734
G1 X106.257 Y102.440 E54.15284
G1 X106.257 Y101.840 E54.18457
G1 X101.840 Y106.257 E54.51495
G1 X101.241 Y106.257 E54.54667
G1 X106.257 Y101.241 E54.92192
G1 X106.257 Y100.641 E54.95365
G1 X100.641 Y106.257 E55.37376
G1 X100.041 Y106.257 E55.40549
G1 X106.257 Y100.041 E55.87047
G1 X106.257 Y99.441 E55.90220
G1 X99.441 Y106.257 E56.41206
G1 X98.842 Y106.257 E56.44378
G1 X106.257 Y98.842 E56.99851
G1 X106.257 Y98.242 E57.03023
G1 X98.242 Y106.257 E57.62983
G1 X97.642 Y106.257 E57.66156
G1 X106.257 Y97.642 E58.30602
G1 X106.257 Y97.042 E58.33775
G1 X97.042 Y106.257 E59.02708
G1 X96.442 Y106.257 E59.05881
G1 X106.257 Y96.442 E59.79301
G1 X106.257 Y95.843 E59.82474
G1 X95.843 Y106.257 E60.60381
G1 X95.243 Y106.257 E60.63554
G1 X106.257 Y95.243 E61.45948
G1 X106.257 Y94.643 E61.49121
G1 X94.643 Y106.257 E62.36002
G1 X94.043 Y106.257 E62.39175
G1 X106.257 Y94.043 E63.30543
G1 X105.957 Y93.743 E63.32786
G1 X93.743 Y105.957 E64.24154
G1 X93.743 Y105.357 E64.27327
G1 X105.357 Y93.743 E65.14208
G1 X104.757 Y93.743 E65.17381
G1 X93.743 Y104.757 E65.99775
G1 X93.743 Y104.157 E66.02948
G1 X104.157 Y93.743 E66.80855
G1 X103.558 Y93.743 E66.84028
G1 X93.743 Y103.558 E67.57448
G1 X93.743 Y102.958 E67.60621
G1 X102.958 Y93.743 E68.29554
G1 X102.358 Y93.743 E68.32727
G1 X93.743 Y102.358 E68.97173
G1 X93.743 Y101.758 E69.00346
G1 X101.758 Y93.743 E69.60306
G1 X101.158 Y93.743 E69.63478
G1 X93.743 Y101.158 E70.18951
G1 X93.743 Y100.559 E70.22123
G1 X100.559 Y93.743 E70.73109
G1 X99.959 Y93.743 E70.76282
G1 X93.743 Y99.959 E71.22780
G1 X93.743 Y99.359 E71.25953
G1 X99.359 Y93.743 E71.67964
G1 X98.759 Y93.743 E71.71137
G1 X93.743 Y98.759 E72.08661
G1 X93.743 Y98.160 E72.11834
G1 X98.160 Y93.743 E72.44872
G1 X97.560 Y93.743 E72.48045
G1 X93.743 Y97.560 E72.76595
G1 X93.743 Y96.960 E72.79768
G1 X96.960 Y93.743 E73.03831
G1 X96.360 Y93.743 E73.07004
G1 X93.743 Y96.360 E73.26581
G1 X93.743 Y95.760 E73.29753
G1 X95.760 Y93.743 E73.44843
G1 X95.161 Y93.743 E73.48016
G1 X93.743 Y95.161 E73.58618
G1 X93.743 Y94.561 E73.61791
G1 X94.561 Y93.743 E73.67907
G1 X93.961 Y93.743 E73.71080
G1 X93.743 Y93.961 E73.72708
; Layer 3
G1 Z1.000 F7800.000
G1 X106.504 Y106.504 F7800.000
G1 X93.496 Y106.504 E74.40667 F2400.000
G1 X93.496 Y93.496 E75.08626
G1 X106.504 Y93.496 E75.76585
G1 X106.504 Y106.444 E76.44230
G1 X106.923 Y106.923 F7800.000
G1 X93.077 Y106.923 E77.16566 F2400.000
G1 X93.077 Y93.077 E77.88902
G1 X106.923 Y93.077 E78.61237
G1 X106.923 Y106.863 E79.33259
G1 X107.300 Y107.300 F7800.000
G1 X92.700 Y107.300 E79.94375 F1200.000
G1 X92.700 Y92.700 E80.55492
G1 X107.300 Y92.700 E81.16608
G1 X107.300 Y107.240 E81.77472
G1 X106.954 Y107.100 F7800.000
G1 X106.257 Y93.961 F7800.000
G1 X106.039 Y93.743 E81.79101 F1200.000
G1 X105.439 Y93.743 E81.82274
G1 X106.257 Y94.561 E81.88390
G1 X106.257 Y95.161 E81.91562
G1 X104.839 Y93.743 E82.02165
G1 X104.240 Y93.743 E82.05338
G1 X106.257 Y95.760 E82.20427
G1 X106.257 Y96.360 E82.23600
G1 X103.640 Y93.743 E82.43177
G1 X103.040 Y93.743 E82.46350
G1 X106.257 Y96.960 E82.70413
G1 X106.257 Y97.560 E82.73586
G1 X102.440 Y93.743 E83.02136
G1 X101.840 Y93.743 E83.05309
G1 X106.257 Y98.160 E83.38347
G1 X106.257 Y98.759 E83.41520
G1 X101.241 Y93.743 E83.79044
G1 X100.641 Y93.743 E83.82217
G1 X106.257 Y99.359 E84.24228
G1 X106.257 Y99.959 E84.27401
G1 X100.041 Y93.743 E84.73899
G1 X99.441 Y93.743 E84.77072
G1 X106.257 Y100.559 E85.28058
G1 X106.257 Y101.158 E85.31230
G1 X98.842 Y93.743 E85.86703
G1 X98.242 Y93.743 E85.89876
G1 X106.257 Y101.758 E86.49835
G1 X106.257 Y102.358 E86.53008
G1 X97.642 Y93.743 E87.17454
G1 X97.042 Y93.743 E87.20627
G1 X106.257 Y102.958 E87.89560
G1 X106.257 Y103.558 E87.92733
G1 X96.442 Y93.743 E88.66153
G1 X95.843 Y93.743 E88.69326
G1 X106.257 Y104.157 E89.47233
G1 X106.257 Y104.757 E89.50406
G1 X95.243 Y93.743 E90.32800
G1 X94.643 Y93.743 E90.35973
G1 X106.257 Y105.357 E91.22854
G1 X106.257 Y105.957 E91.26027
G1 X94.043 Y93.743 E92.17395
G1 X93.743 Y94.043 E92.19638
G1 X105.957 Y106.257 E93.11007
G1 X105.357 Y106.257 E93.14179
G1 X93.743 Y94.643 E94.01061
G1 X93.743 Y95.243 E94.04233
G1 X104.757 Y106.257 E94.86628
G1 X104.157 Y106.257 E94.89800
G1 X93.743 Y95.843 E95.67708
G1 X93.743 Y96.442 E95.70880
G1 X103.558 Y106.257 E96.44301
G1 X102.958 Y106.257 E96.47473
G1 X93.743 Y97.042 E97.16407
G1 X93.743 Y97.642 E97.19579
G1 X102.358 Y106.257 E97.84026
G1 X101.758 Y106.257 E97.87198
G1 X93.743 Y98.242 E98.47158
G1 X93.743 Y98.842 E98.50331
G1 X101.158 Y106.257 E99.05803
G1 X100.559 Y106.257 E99.08976
G1 X93.743 Y99.441 E99.59961
G1 X93.743 Y100.041 E99.63134
G1 X99.959 Y106.257 E100.09632
G1 X99.359 Y106.257 E100.12805
G1 X93.743 Y100.641 E100.54816
G1 X93.743 Y101.241 E100.57989
G1 X98.759 Y106.257 E100.95514
G1 X98.160 Y106.257 E100.98686
G1 X93.743 Y101.840 E101.31724
G1 X93.743 Y102.440 E101.34897
G1 X97.560 Y106.257 E101.63447
G1 X96.960 Y106.257 E101.66620
G1 X93.743 Y103.040 E101.90684
G1 X93.743 Y103.640 E101.93856
G1 X96.360 Y106.257 E102.13433
G1 X95.760 Y106.257 E102.16606
G1 X93.743 Y104.240 E102.31695
G1 X93.743 Y104.839 E102.34868
G1 X95.161 Y106.257 E102.45471
G1 X94.561 Y106.257 E102.48643
G1 X93.743 Y105.439 E102.54759
G1 X93.743 Y106.039 E102.57932
G1 X93.961 Y106.257 E102.59561
M106 S249.9
; Layer 4
G1 Z1.300 F7800.000
G1 X106.504 Y106.504 F7800.000
G1 X93.496 Y106.504 E103.27519 F2400.000
G1 X93.496 Y93.496 E103.95478
G1 X106.504 Y93.496 E104.63437
G1 X106.504 Y106.444 E105.31082
G1 X106.923 Y106.923 F7800.000
G1 X93.077 Y106.923 E106.03418 F2400.000
G1 X93.077 Y93.077 E106.75754
G1 X106.923 Y93.077 E107.48089
G1 X106.923 Y106.863 E108.20112
G1 X107.300 Y107.300 F7800.000
G1 X92.700 Y107.300 E108.81228 F1200.000
G1 X92.700 Y92.700 E109.42344
G1 X107.300 Y92.700 E110.03460
G1 X107.300 Y107.240 E110.64325
G1 X106.954 Y107.100 F7800.000
G1 X106.148 Y104.519 F7800.000
G1 X106.050 Y104.493 E110.64855 F3000.000
G1 X104.395 Y106.148 E110.77084
G1 X106.148 Y106.148 E110.86244
G1 X106.148 Y104.519 E110.94754
G1 X106.148 Y101.433 F7800.000
G1 X106.148 Y100.840 E110.97849 F3000.000
G1 X104.957 Y102.032 E111.06650
G1 X103.088 Y101.531 E111.16758
G1 X101.207 Y103.412 E111.30656
G1 X101.708 Y105.281 E111.40764
G1 X100.840 Y106.148 E111.47172
G1 X101.433 Y106.148 E111.50267
G1 X102.004 Y105.577 E111.54486
G1 X103.872 Y106.078 E111.64594
G1 X105.754 Y104.196 E111.78492
G1 X105.253 Y102.328 E111.88600
G1 X106.148 Y101.433 E111.95213
G1 X106.148 Y97.878 F7800.000
G1 X106.148 Y93.852 E112.16248 F3000.000
G1 X104.843 Y93.852 E112.23067
G1 X103.375 Y95.320 E112.33910
G1 X103.876 Y97.189 E112.44018
G1 X101.995 Y99.070 E112.57916
G1 X100.126 Y98.569 E112.68024
G1 X98.245 Y100.450 E112.81923
G1 X98.746 Y102.319 E112.92030
G1 X96.865 Y104.200 E113.05929
G1 X94.996 Y103.699 E113.16037
G1 X93.852 Y104.843 E113.24486
G1 X93.852 Y106.148 E113.31305
G1 X97.603 Y106.148 E113.50903
G1 X97.161 Y104.496 E113.59838
G1 X99.042 Y102.615 E113.73736
G1 X100.911 Y103.116 E113.83844
G1 X102.792 Y101.235 E113.97742
G1 X102.291 Y99.366 E114.07850
G1 X104.172 Y97.485 E114.21749
G1 X106.041 Y97.985 E114.31857
G1 X106.148 Y97.878 E114.32648
G1 X103.079 Y95.024 F7800.000
G1 X104.250 Y93.852 E114.41302 F3000.000
G1 X100.814 Y93.852 E114.59257
G1 X100.914 Y94.227 E114.61282
G1 X99.033 Y96.108 E114.75181
G1 X97.164 Y95.607 E114.85289
G1 X95.283 Y97.488 E114.99187
G1 X95.784 Y99.357 E115.09295
G1 X93.903 Y101.238 E115.23193
G1 X93.852 Y101.224 E115.23466
G1 X93.852 Y104.250 E115.39275
G1 X94.700 Y103.403 E115.45535
G1 X94.199 Y101.534 E115.55643
G1 X96.080 Y99.653 E115.69542
G1 X97.949 Y100.154 E115.79650
G1 X99.830 Y98.273 E115.93548
G1 X99.329 Y96.404 E116.03656
G1 X101.210 Y94.523 E116.17554
G1 X103.079 Y95.024 E116.27662
G1 X96.868 Y95.311 F7800.000
G1 X96.477 Y93.852 E116.35551 F3000.000
G1 X93.852 Y93.852 E116.49265
G1 X93.852 Y96.888 E116.65124
G1 X94.987 Y97.192 E116.71261
G1 X96.868 Y95.311 E116.85159
; Layer 5
G1 Z1.600 F7800.000
G1 X106.504 Y106.504 F7800.000
G1 X93.496 Y106.504 E117.53118 F2400.000
G1 X93.496 Y93.496 E118.21077
G1 X106.504 Y93.496 E118.89036
G1 X106.504 Y106.444 E119.56681
G1 X106.923 Y106.923 F7800.000
G1 X93.077 Y106.923 E120.29017 F2400.000
G1 X93.077 Y93.077 E121.01352
G1 X106.923 Y93.077 E121.73688
G1 X106.923 Y106.863 E122.45710
G1 X107.300 Y107.300 F7800.000
G1 X92.700 Y107.300 E123.06826 F1200.000
G1 X92.700 Y92.700 E123.67942
G1 X107.300 Y92.700 E124.29058
G1 X107.300 Y107.240 E124.89923
G1 X106.954 Y107.100 F7800.000
G1 X103.483 Y94.915 F7800.000
G1 X104.172 Y97.485 E125.03822 F3000.000
G1 X106.041 Y97.985 E125.13930
G1 X106.148 Y98.385 E125.16091
G1 X106.148 Y101.136 E125.30466
G1 X105.361 Y101.923 E125.36278
G1 X106.050 Y104.493 E125.50176
G1 X106.148 Y104.519 E125.50707
G1 X106.148 Y106.148 E125.59217
G1 X104.325 Y106.148 E125.68740
G1 X104.277 Y105.969 E125.69706
G1 X105.645 Y104.601 E125.79814
G1 X104.957 Y102.032 E125.93713
G1 X103.088 Y101.531 E126.03821
G1 X102.399 Y98.961 E126.17719
G1 X103.767 Y97.593 E126.27827
G1 X103.079 Y95.024 E126.41725
G1 X101.210 Y94.523 E126.51833
G1 X101.030 Y93.852 E126.55461
G1 X104.546 Y93.852 E126.73830
G1 X103.483 Y94.915 E126.81684
G1 X100.805 Y94.631 F7800.000
G1 X99.437 Y95.999 E126.91792 F3000.000
G1 X100.126 Y98.569 E127.05690
G1 X101.995 Y99.070 E127.15798
G1 X102.683 Y101.639 E127.29696
G1 X101.315 Y103.007 E127.39804
G1 X102.004 Y105.577 E127.53703
G1 X103.872 Y106.078 E127.63811
G1 X103.891 Y106.148 E127.64191
G1 X101.136 Y106.148 E127.78583
G1 X101.599 Y105.685 E127.82001
G1 X100.911 Y103.116 E127.95899
G1 X99.042 Y102.615 E128.06007
G1 X98.353 Y100.045 E128.19906
G1 X99.721 Y98.677 E128.30014
G1 X99.033 Y96.108 E128.43912
G1 X97.164 Y95.607 E128.54020
G1 X96.694 Y93.852 E128.63511
G1 X100.597 Y93.852 E128.83902
G1 X100.805 Y94.631 E128.88115
G1 X96.759 Y95.715 F7800.000
G1 X95.391 Y97.083 E128.98223 F3000.000
G1 X96.080 Y99.653 E129.12122
G1 X97.949 Y100.154 E129.22230
G1 X98.637 Y102.723 E129.36128
G1 X97.269 Y104.091 E129.46236
G1 X97.820 Y106.148 E129.57359
G1 X97.386 Y106.148 E129.59625
G1 X96.865 Y104.200 E129.70161
G1 X94.996 Y103.699 E129.80269
G1 X94.307 Y101.129 E129.94167
G1 X95.675 Y99.761 E130.04275
G1 X94.987 Y97.192 E130.18174
G1 X93.852 Y96.888 E130.24310
G1 X93.852 Y93.852 E130.40170
G1 X96.260 Y93.852 E130.52750
G1 X96.759 Y95.715 E130.62828
G1 X93.903 Y101.238 F7800.000
G1 X94.591 Y103.807 E130.76726 F3000.000
G1 X93.852 Y104.546 E130.82186
G1 X93.852 Y101.224 E130.99542
G1 X93.903 Y101.238 E130.99815
; Layer 6
G1 Z1.900 F7800.000
G1 X106.504 Y106.504 F7800.000
G1 X93.496 Y106.504 E131.67774 F2400.000
G1 X93.496 Y93.496 E132.35732
G1 X106.504 Y93.496 E133.03691
G1 X106.504 Y106.444 E133.71337
G1 X106.923 Y106.923 F7800.000
G1 X93.077 Y106.923 E134.43672 F2400.000
G1 X93.077 Y93.077 E135.16008
G1 X106.923 Y93.077 E135.88344
G1 X106.923 Y106.863 E136.60366
G1 X107.300 Y107.300 F7800.000
G1 X92.700 Y107.300 E137.21482 F1200.000
G1 X92.700 Y92.700 E137.82598
G1 X107.300 Y92.700 E138.43714
G1 X107.300 Y107.240 E139.04579
G1 X106.954 Y107.100 F7800.000
G1 X103.483 Y94.915 F7800.000
G1 X100.914 Y94.227 E139.18477 F3000.000
G1 X100.814 Y93.852 E139.20502
G1 X104.546 Y93.852 E139.40005
G1 X103.483 Y94.915 E139.47858
G1 X106.148 Y93.894 F7800.000
G1 X105.990 Y93.852 E139.48711 F3000.000
G1 X106.148 Y93.852 E139.49535
G1 X106.148 Y93.894 E139.49755
G1 X96.868 Y95.311 F7800.000
G1 X99.437 Y95.999 E139.63654 F3000.000
G1 X100.805 Y94.631 E139.73762
G1 X103.375 Y95.320 E139.87660
G1 X103.876 Y97.189 E139.97768
G1 X106.148 Y97.797 E140.10057
G1 X106.148 Y98.231 E140.12323
G1 X103.767 Y97.593 E140.25198
G1 X102.399 Y98.961 E140.35306
