;Generated with Cura_SteamEngine 15.01
; Default start code
G28 ; Home extruder
G1 Z15 F100
M107 ; Turn off fan
G90 ; Absolute positioning
M82 ; Extruder in absolute mode
M190 S50
; Activate all used extruder
M104 T0 S180
M104 T1 S0
G92 E0 ; Reset extruder position
; Wait for all used extruders to reach temperature
M109 T0 S180
M109 T1 S0
;Layer count: 19
;LAYER:0
M107
G0 F7200 X81.400 Y81.400 Z0.300
;TYPE:SKIRT
G1 F1800 X118.600 Y81.400 E1.67032
G1 X118.600 Y118.600 E3.34065
G1 X81.400 Y118.600 E5.01097
G1 X81.400 Y81.400 E6.68130
G0 F7200 X81.800 Y81.800
G1 F1800 X118.200 Y81.800 E8.31570
G1 X118.200 Y118.200 E9.95010
G1 X81.800 Y118.200 E11.58451
G1 X81.800 Y81.800 E13.21891
G1 F2400 E7.21891
G0 F7200 X85.600 Y85.600
;TYPE:WALL-INNER
G1 F2400 E13.21891
G1 F1800 X114.400 Y85.600 E14.51206
G1 X114.400 Y114.400 E15.80522
G1 X85.600 Y114.400 E17.09837
G1 X85.600 Y85.600 E18.39152
G0 F7200 X85.200 Y85.200
;TYPE:WALL-OUTER
G1 F1200 X114.800 Y85.200 E19.72060
G1 X114.800 Y114.800 E21.04967
G1 X85.200 Y114.800 E22.37875
G1 X85.200 Y85.200 E23.70782
G0 F7200 X85.739 Y86.022
;TYPE:SKIN
G1 F1800 X113.976 Y114.259 E25.50087
G0 F7200 X114.259 Y113.977
G1 F1800 X86.023 Y85.740 E27.29388
G0 F7200 X86.588 Y85.740
G1 F1800 X114.259 Y113.411 E29.05099
G0 F7200 X114.259 Y112.845
G1 F1800 X87.154 Y85.740 E30.77215
G0 F7200 X87.720 Y85.740
G1 F1800 X114.259 Y112.280 E32.45741
G0 F7200 X114.259 Y111.714
G1 F1800 X88.285 Y85.740 E34.10675
G0 F7200 X88.851 Y85.740
G1 F1800 X114.259 Y111.148 E35.72016
G0 F7200 X114.259 Y110.583
G1 F1800 X89.417 Y85.740 E37.29765
G0 F7200 X89.982 Y85.740
G1 F1800 X114.259 Y110.017 E38.83924
G0 F7200 X114.259 Y109.451
G1 F1800 X90.548 Y85.740 E40.34488
G0 F7200 X91.114 Y85.740
G1 F1800 X114.259 Y108.885 E41.81459
G0 F7200 X114.259 Y108.320
G1 F1800 X91.679 Y85.740 E43.24841
G0 F7200 X92.245 Y85.740
G1 F1800 X114.259 Y107.754 E44.64630
G0 F7200 X114.259 Y107.188
G1 F1800 X92.811 Y85.740 E46.00825
G0 F7200 X93.376 Y85.740
G1 F1800 X114.259 Y106.623 E47.33431
G0 F7200 X114.259 Y106.057
G1 F1800 X93.942 Y85.740 E48.62444
G0 F7200 X94.508 Y85.740
G1 F1800 X114.259 Y105.491 E49.87863
G0 F7200 X114.259 Y104.926
G1 F1800 X95.074 Y85.740 E51.09690
G0 F7200 X95.639 Y85.740
G1 F1800 X114.259 Y104.360 E52.27927
G0 F7200 X114.259 Y103.794
G1 F1800 X96.205 Y85.740 E53.42570
G0 F7200 X96.771 Y85.740
G1 F1800 X114.259 Y103.229 E54.53621
G0 F7200 X114.259 Y102.663
G1 F1800 X97.336 Y85.740 E55.61082
G0 F7200 X97.902 Y85.740
G1 F1800 X114.259 Y102.097 E56.64949
G0 F7200 X114.259 Y101.532
G1 F1800 X98.468 Y85.740 E57.65225
G0 F7200 X99.033 Y85.740
G1 F1800 X114.259 Y100.966 E58.61910
G0 F7200 X114.259 Y100.400
G1 F1800 X99.599 Y85.740 E59.55000
G1 F2400 E53.55000
G0 F7200 X85.739 Y86.588
G1 F2400 E59.55000
G1 F1800 X113.410 Y114.259 E61.30711
G0 F7200 X112.845 Y114.259
G1 F1800 X85.739 Y87.153 E63.02834
G0 F7200 X85.739 Y87.719
G1 F1800 X112.279 Y114.259 E64.71362
G0 F7200 X111.713 Y114.259
G1 F1800 X85.739 Y88.285 E66.36297
G0 F7200 X85.739 Y88.850
G1 F1800 X111.147 Y114.259 E67.97640
G0 F7200 X110.582 Y114.259
G1 F1800 X85.739 Y89.416 E69.55393
G0 F7200 X85.739 Y89.982
G1 F1800 X110.016 Y114.259 E71.09552
G0 F7200 X109.450 Y114.259
G1 F1800 X85.739 Y90.547 E72.60119
G0 F7200 X85.739 Y91.113
G1 F1800 X108.885 Y114.259 E74.07096
G0 F7200 X108.319 Y114.259
G1 F1800 X85.739 Y91.679 E75.50479
G0 F7200 X85.739 Y92.244
G1 F1800 X107.753 Y114.259 E76.90271
G0 F7200 X107.188 Y114.259
G1 F1800 X85.739 Y92.810 E78.26471
G0 F7200 X85.739 Y93.376
G1 F1800 X106.622 Y114.259 E79.59078
G0 F7200 X106.056 Y114.259
G1 F1800 X85.739 Y93.941 E80.88094
G0 F7200 X85.739 Y94.507
G1 F1800 X105.491 Y114.259 E82.13519
G0 F7200 X104.925 Y114.259
G1 F1800 X85.739 Y95.073 E83.35350
G0 F7200 X85.739 Y95.639
G1 F1800 X104.359 Y114.259 E84.53587
G0 F7200 X103.794 Y114.259
G1 F1800 X85.739 Y96.204 E85.68236
G0 F7200 X85.739 Y96.770
G1 F1800 X103.228 Y114.259 E86.79290
G0 F7200 X102.662 Y114.259
G1 F1800 X85.739 Y97.336 E87.86751
G0 F7200 X85.739 Y97.901
G1 F1800 X102.097 Y114.259 E88.90624
G0 F7200 X101.531 Y114.259
G1 F1800 X85.739 Y98.467 E89.90903
G0 F7200 X85.739 Y99.033
G1 F1800 X100.965 Y114.259 E90.87588
G0 F7200 X100.399 Y114.259
G1 F1800 X85.739 Y99.598 E91.80682
G0 F7200 X85.739 Y100.164
G1 F1800 X99.834 Y114.259 E92.70185
G0 F7200 X99.268 Y114.259
G1 F1800 X85.739 Y100.730 E93.56094
G0 F7200 X85.739 Y101.295
G1 F1800 X98.702 Y114.259 E94.38412
G0 F7200 X98.137 Y114.259
G1 F1800 X85.739 Y101.861 E95.17139
G0 F7200 X85.739 Y102.427
G1 F1800 X97.571 Y114.259 E95.92272
G0 F7200 X97.005 Y114.259
G1 F1800 X85.739 Y102.992 E96.63814
G0 F7200 X85.739 Y103.558
G1 F1800 X96.440 Y114.259 E97.31766
G0 F7200 X95.874 Y114.259
G1 F1800 X85.739 Y104.124 E97.96123
G0 F7200 X85.739 Y104.689
G1 F1800 X95.308 Y114.259 E98.56889
G0 F7200 X94.743 Y114.259
G1 F1800 X85.739 Y105.255 E99.14064
G0 F7200 X85.739 Y105.821
G1 F1800 X94.177 Y114.259 E99.67645
G0 F7200 X93.611 Y114.259
G1 F1800 X85.739 Y106.387 E100.17633
G0 F7200 X85.739 Y106.952
G1 F1800 X93.046 Y114.259 E100.64032
G0 F7200 X92.480 Y114.259
G1 F1800 X85.739 Y107.518 E101.06837
G0 F7200 X85.739 Y108.084
G1 F1800 X91.914 Y114.259 E101.46048
G0 F7200 X91.349 Y114.259
G1 F1800 X85.739 Y108.649 E101.81672
G0 F7200 X85.739 Y109.215
G1 F1800 X90.783 Y114.259 E102.13701
G0 F7200 X90.217 Y114.259
G1 F1800 X85.739 Y109.781 E102.42136
G0 F7200 X85.739 Y110.346
G1 F1800 X89.651 Y114.259 E102.66981
G0 F7200 X89.086 Y114.259
G1 F1800 X85.739 Y110.912 E102.88234
G0 F7200 X85.739 Y111.478
G1 F1800 X88.520 Y114.259 E103.05893
G0 F7200 X87.954 Y114.259
G1 F1800 X85.739 Y112.043 E103.19962
G0 F7200 X85.739 Y112.609
G1 F1800 X87.389 Y114.259 E103.30439
G0 F7200 X86.823 Y114.259
G1 F1800 X85.739 Y113.175 E103.37323
G0 F7200 X85.739 Y113.740
G1 F1800 X86.257 Y114.259 E103.40615
G1 F2400 E97.40615
G0 F7200 X114.259 Y99.834
G1 F2400 E103.40615
G1 F1800 X100.165 Y85.740 E104.30112
G0 F7200 X100.730 Y85.740
G1 F1800 X114.259 Y99.269 E105.16021
G0 F7200 X114.259 Y98.703
G1 F1800 X101.296 Y85.740 E105.98336
G0 F7200 X101.862 Y85.740
G1 F1800 X114.259 Y98.137 E106.77056
G0 F7200 X114.259 Y97.572
G1 F1800 X102.427 Y85.740 E107.52189
G0 F7200 X102.993 Y85.740
G1 F1800 X114.259 Y97.006 E108.23728
G0 F7200 X114.259 Y96.440
G1 F1800 X103.559 Y85.740 E108.91673
G0 F7200 X104.125 Y85.740
G1 F1800 X114.259 Y95.875 E109.56027
G0 F7200 X114.259 Y95.309
G1 F1800 X104.690 Y85.740 E110.16790
G0 F7200 X105.256 Y85.740
G1 F1800 X114.259 Y94.743 E110.73959
G0 F7200 X114.259 Y94.178
G1 F1800 X105.822 Y85.740 E111.27537
G0 F7200 X106.387 Y85.740
G1 F1800 X114.259 Y93.612 E111.77524
G0 F7200 X114.259 Y93.046
G1 F1800 X106.953 Y85.740 E112.23917
G0 F7200 X107.519 Y85.740
G1 F1800 X114.259 Y92.481 E112.66719
G0 F7200 X114.259 Y91.915
G1 F1800 X108.084 Y85.740 E113.05930
G0 F7200 X108.650 Y85.740
G1 F1800 X114.259 Y91.349 E113.41547
G0 F7200 X114.259 Y90.784
G1 F1800 X109.216 Y85.740 E113.73574
G0 F7200 X109.781 Y85.740
G1 F1800 X114.259 Y90.218 E114.02009
G0 F7200 X114.259 Y89.652
G1 F1800 X110.347 Y85.740 E114.26850
G0 F7200 X110.913 Y85.740
G1 F1800 X114.259 Y89.086 E114.48097
G0 F7200 X114.259 Y88.521
G1 F1800 X111.478 Y85.740 E114.65756
G0 F7200 X112.044 Y85.740
G1 F1800 X114.259 Y87.955 E114.79822
G0 F7200 X114.259 Y87.389
G1 F1800 X112.610 Y85.740 E114.90293
G0 F7200 X113.175 Y85.740
G1 F1800 X114.259 Y86.824 E114.97176
G0 F7200 X114.259 Y86.258
G1 F1800 X113.741 Y85.740 E115.00465
;LAYER:1
M106 S89
G0 F7200 X114.400 Y85.600 Z0.450
;TYPE:WALL-INNER
G1 F1920 X114.400 Y114.400 E115.65123
G1 X85.600 Y114.400 E116.29781
G1 X85.600 Y85.600 E116.94439
G1 X114.400 Y85.600 E117.59096
G0 F7200 X114.800 Y85.200
;TYPE:WALL-OUTER
G1 F1200 X114.800 Y114.800 E118.25550
G1 X85.200 Y114.800 E118.92004
G1 X85.200 Y85.200 E119.58457
G1 X114.800 Y85.200 E120.24911
G0 F7200 X114.230 Y85.739
;TYPE:SKIN
G1 F1740 X85.740 Y114.229 E121.15367
G0 F7200 X86.275 Y114.259
G1 F1740 X114.259 Y86.276 E122.04214
G0 F7200 X114.259 Y86.841
G1 F1740 X86.841 Y114.259 E122.91266
G0 F7200 X87.406 Y114.259
G1 F1740 X114.259 Y87.407 E123.76523
G0 F7200 X114.259 Y87.973
G1 F1740 X87.972 Y114.259 E124.59982
G0 F7200 X88.538 Y114.259
G1 F1740 X114.259 Y88.538 E125.41646
G0 F7200 X114.259 Y89.104
G1 F1740 X89.103 Y114.259 E126.21515
G0 F7200 X89.669 Y114.259
G1 F1740 X114.259 Y89.670 E126.99586
G0 F7200 X114.259 Y90.236
G1 F1740 X90.235 Y114.259 E127.75861
G0 F7200 X90.800 Y114.259
G1 F1740 X114.259 Y90.801 E128.50341
G0 F7200 X114.259 Y91.367
G1 F1740 X91.366 Y114.259 E129.23025
G0 F7200 X91.932 Y114.259
G1 F1740 X114.259 Y91.933 E129.93911
G0 F7200 X114.259 Y92.498
G1 F1740 X92.498 Y114.259 E130.63002
G0 F7200 X93.063 Y114.259
G1 F1740 X114.259 Y93.064 E131.30298
G0 F7200 X114.259 Y93.630
G1 F1740 X93.629 Y114.259 E131.95796
G0 F7200 X94.195 Y114.259
G1 F1740 X114.259 Y94.195 E132.59499
G0 F7200 X114.259 Y94.761
G1 F1740 X94.760 Y114.259 E133.21407
G0 F7200 X95.326 Y114.259
G1 F1740 X114.259 Y95.327 E133.81517
G0 F7200 X114.259 Y95.892
G1 F1740 X95.892 Y114.259 E134.39833
G0 F7200 X96.457 Y114.259
G1 F1740 X114.259 Y96.458 E134.96352
G0 F7200 X114.259 Y97.024
G1 F1740 X97.023 Y114.259 E135.51075
G0 F7200 X97.589 Y114.259
G1 F1740 X114.259 Y97.589 E136.04002
G0 F7200 X114.259 Y98.155
G1 F1740 X98.154 Y114.259 E136.55134
G0 F7200 X98.720 Y114.259
G1 F1740 X114.259 Y98.721 E137.04468
G0 F7200 X114.259 Y99.286
G1 F1740 X99.286 Y114.259 E137.52007
G0 F7200 X99.851 Y114.259
G1 F1740 X114.259 Y99.852 E137.97751
G1 F2400 E131.97751
G0 F7200 X113.664 Y85.739
G1 F2400 E137.97751
G1 F1740 X85.740 Y113.663 E138.86410
G0 F7200 X85.740 Y113.098
G1 F1740 X113.098 Y85.739 E139.73273
G0 F7200 X112.533 Y85.739
G1 F1740 X85.740 Y112.532 E140.58340
G0 F7200 X85.740 Y111.966
G1 F1740 X111.967 Y85.739 E141.41611
G0 F7200 X111.401 Y85.739
G1 F1740 X85.740 Y111.401 E142.23086
G0 F7200 X85.740 Y110.835
G1 F1740 X110.836 Y85.739 E143.02766
G0 F7200 X110.270 Y85.739
G1 F1740 X85.740 Y110.269 E143.80648
G0 F7200 X85.740 Y109.704
G1 F1740 X109.704 Y85.739 E144.56735
G0 F7200 X109.139 Y85.739
G1 F1740 X85.740 Y109.138 E145.31027
G0 F7200 X85.740 Y108.572
G1 F1740 X108.573 Y85.739 E146.03522
G0 F7200 X108.007 Y85.739
G1 F1740 X85.740 Y108.007 E146.74221
G0 F7200 X85.740 Y107.441
G1 F1740 X107.442 Y85.739 E147.43124
G0 F7200 X106.876 Y85.739
G1 F1740 X85.740 Y106.875 E148.10231
G0 F7200 X85.740 Y106.309
G1 F1740 X106.310 Y85.739 E148.75541
G0 F7200 X105.744 Y85.739
G1 F1740 X85.740 Y105.744 E149.39055
G0 F7200 X85.740 Y105.178
G1 F1740 X105.179 Y85.739 E150.00773
G0 F7200 X104.613 Y85.739
G1 F1740 X85.740 Y104.612 E150.60695
G0 F7200 X85.740 Y104.047
G1 F1740 X104.047 Y85.739 E151.18821
G0 F7200 X103.482 Y85.739
G1 F1740 X85.740 Y103.481 E151.75152
G0 F7200 X85.740 Y102.915
G1 F1740 X102.916 Y85.739 E152.29686
G0 F7200 X102.350 Y85.739
G1 F1740 X85.740 Y102.350 E152.82424
G0 F7200 X85.740 Y101.784
G1 F1740 X101.785 Y85.739 E153.33367
G0 F7200 X101.219 Y85.739
G1 F1740 X85.740 Y101.218 E153.82512
G0 F7200 X85.740 Y100.653
G1 F1740 X100.653 Y85.739 E154.29863
G0 F7200 X100.088 Y85.739
G1 F1740 X85.740 Y100.087 E154.75417
G0 F7200 X85.740 Y99.521
G1 F1740 X99.522 Y85.739 E155.19175
G0 F7200 X98.956 Y85.739
G1 F1740 X85.740 Y98.956 E155.61138
G0 F7200 X85.740 Y98.390
G1 F1740 X98.391 Y85.739 E156.01304
G0 F7200 X97.825 Y85.739
G1 F1740 X85.740 Y97.824 E156.39674
G0 F7200 X85.740 Y97.259
G1 F1740 X97.259 Y85.739 E156.76248
G0 F7200 X96.694 Y85.739
G1 F1740 X85.740 Y96.693 E157.11027
G0 F7200 X85.740 Y96.127
G1 F1740 X96.128 Y85.739 E157.44009
G0 F7200 X95.562 Y85.739
G1 F1740 X85.740 Y95.561 E157.75194
G0 F7200 X85.740 Y94.996
G1 F1740 X94.996 Y85.739 E158.04583
G0 F7200 X94.431 Y85.739
G1 F1740 X85.740 Y94.430 E158.32177
G0 F7200 X85.740 Y93.864
G1 F1740 X93.865 Y85.739 E158.57974
G0 F7200 X93.299 Y85.739
G1 F1740 X85.740 Y93.299 E158.81975
G0 F7200 X85.740 Y92.733
G1 F1740 X92.734 Y85.739 E159.04181
G0 F7200 X92.168 Y85.739
G1 F1740 X85.740 Y92.167 E159.24590
G0 F7200 X85.740 Y91.602
G1 F1740 X91.602 Y85.739 E159.43203
G0 F7200 X91.037 Y85.739
G1 F1740 X85.740 Y91.036 E159.60021
G0 F7200 X85.740 Y90.470
G1 F1740 X90.471 Y85.739 E159.75042
G0 F7200 X89.905 Y85.739
G1 F1740 X85.740 Y89.905 E159.88268
G0 F7200 X85.740 Y89.339
G1 F1740 X89.340 Y85.739 E159.99698
G0 F7200 X88.774 Y85.739
G1 F1740 X85.740 Y88.773 E160.09331
G0 F7200 X85.740 Y88.208
G1 F1740 X88.208 Y85.739 E160.17168
G0 F7200 X87.643 Y85.739
G1 F1740 X85.740 Y87.642 E160.23210
G0 F7200 X85.740 Y87.076
G1 F1740 X87.077 Y85.739 E160.27455
G0 F7200 X86.511 Y85.739
G1 F1740 X85.740 Y86.510 E160.29903
G0 F7200 X85.740 Y85.945
G1 F1740 X85.946 Y85.739 E160.30557
G1 F2400 E154.30557
G0 F7200 X114.259 Y100.418
G1 F2400 E160.30557
G1 F1740 X100.417 Y114.259 E160.74504
G0 F7200 X100.983 Y114.259
G1 F1740 X114.259 Y100.984 E161.16653
G0 F7200 X114.259 Y101.549
G1 F1740 X101.549 Y114.259 E161.57008
G0 F7200 X102.114 Y114.259
G1 F1740 X114.259 Y102.115 E161.95566
G0 F7200 X114.259 Y102.681
G1 F1740 X102.680 Y114.259 E162.32328
G0 F7200 X103.246 Y114.259
G1 F1740 X114.259 Y103.246 E162.67294
G0 F7200 X114.259 Y103.812
G1 F1740 X103.811 Y114.259 E163.00465
G0 F7200 X104.377 Y114.259
G1 F1740 X114.259 Y104.378 E163.31839
G0 F7200 X114.259 Y104.943
G1 F1740 X104.943 Y114.259 E163.61417
G0 F7200 X105.508 Y114.259
G1 F1740 X114.259 Y105.509 E163.89200
G0 F7200 X114.259 Y106.075
G1 F1740 X106.074 Y114.259 E164.15185
G0 F7200 X106.640 Y114.259
G1 F1740 X114.259 Y106.640 E164.39376
G0 F7200 X114.259 Y107.206
G1 F1740 X107.205 Y114.259 E164.61770
G0 F7200 X107.771 Y114.259
G1 F1740 X114.259 Y107.772 E164.82368
G0 F7200 X114.259 Y108.337
G1 F1740 X108.337 Y114.259 E165.01170
G0 F7200 X108.902 Y114.259
G1 F1740 X114.259 Y108.903 E165.18177
G0 F7200 X114.259 Y109.469
G1 F1740 X109.468 Y114.259 E165.33387
G0 F7200 X110.034 Y114.259
G1 F1740 X114.259 Y110.035 E165.46800
G0 F7200 X114.259 Y110.600
G1 F1740 X110.599 Y114.259 E165.58419
G0 F7200 X111.165 Y114.259
G1 F1740 X114.259 Y111.166 E165.68241
G0 F7200 X114.259 Y111.732
G1 F1740 X111.731 Y114.259 E165.76265
G0 F7200 X112.297 Y114.259
G1 F1740 X114.259 Y112.297 E165.82495
G0 F7200 X114.259 Y112.863
G1 F1740 X112.862 Y114.259 E165.86929
G0 F7200 X113.428 Y114.259
G1 F1740 X114.259 Y113.429 E165.89565
G0 F7200 X114.259 Y113.994
G1 F1740 X113.994 Y114.259 E165.90407
;LAYER:2
M106 S178
G0 F7200 X114.400 Y114.400 Z0.600
;TYPE:WALL-INNER
G1 F2100 X85.600 Y114.400 E166.55064
G1 X85.600 Y85.600 E167.19722
G1 X114.400 Y85.600 E167.84380
G1 X114.400 Y114.400 E168.49038
G0 F7200 X114.800 Y114.800
;TYPE:WALL-OUTER
G1 F1200 X85.200 Y114.800 E169.15491
G1 X85.200 Y85.200 E169.81945
G1 X114.800 Y85.200 E170.48399
G1 X114.800 Y114.800 E171.14853
G0 F7200 X114.259 Y113.977
;TYPE:SKIN
G1 F1800 X86.023 Y85.740 E172.04503
G0 F7200 X85.739 Y86.022
G1 F1800 X113.976 Y114.259 E172.94156
G0 F7200 X113.410 Y114.259
G1 F1800 X85.739 Y86.588 E173.82011
G0 F7200 X85.739 Y87.153
G1 F1800 X112.845 Y114.259 E174.68072
G0 F7200 X112.279 Y114.259
G1 F1800 X85.739 Y87.719 E175.52336
G0 F7200 X85.739 Y88.285
G1 F1800 X111.713 Y114.259 E176.34804
G0 F7200 X111.147 Y114.259
G1 F1800 X85.739 Y88.850 E177.15476
G0 F7200 X85.739 Y89.416
G1 F1800 X110.582 Y114.259 E177.94352
G0 F7200 X110.016 Y114.259
G1 F1800 X85.739 Y89.982 E178.71431
G0 F7200 X85.739 Y90.547
G1 F1800 X109.450 Y114.259 E179.46715
G0 F7200 X108.885 Y114.259
G1 F1800 X85.739 Y91.113 E180.20203
G0 F7200 X85.739 Y91.679
G1 F1800 X108.319 Y114.259 E180.91895
G0 F7200 X107.753 Y114.259
G1 F1800 X85.739 Y92.244 E181.61791
G0 F7200 X85.739 Y92.810
G1 F1800 X107.188 Y114.259 E182.29891
G0 F7200 X106.622 Y114.259
G1 F1800 X85.739 Y93.376 E182.96194
G0 F7200 X85.739 Y93.941
G1 F1800 X106.056 Y114.259 E183.60702
G0 F7200 X105.491 Y114.259
G1 F1800 X85.739 Y94.507 E184.23415
G0 F7200 X85.739 Y95.073
G1 F1800 X104.925 Y114.259 E184.84330
G0 F7200 X104.359 Y114.259
G1 F1800 X85.739 Y95.639 E185.43449
G0 F7200 X85.739 Y96.204
G1 F1800 X103.794 Y114.259 E186.00773
G0 F7200 X103.228 Y114.259
G1 F1800 X85.739 Y96.770 E186.56301
G0 F7200 X85.739 Y97.336
G1 F1800 X102.662 Y114.259 E187.10031
